build/img/icon-like.svg

<svg width="16" height="14" viewBox="0 0 16 14" fill="none" xmlns="http://www.w3.org/2000/svg">
<path d="M8.67963 0.320506L4.71221 4.32179C4.44723 4.58903 4.29684 4.95738 4.29684 5.34017V12.5555C4.29684 13.35 4.94137 14 5.72913 14H12.1744C12.7473 14 13.2629 13.6533 13.4921 13.1261L15.8267 7.62972C16.4283 6.19965 15.3899 4.6107 13.8502 4.6107H9.80397L10.4843 1.30277C10.5559 0.941645 10.4485 0.573295 10.1907 0.313284C9.76816 -0.105624 9.09499 -0.105624 8.67963 0.320506ZM1.43228 14C2.22004 14 2.86456 13.35 2.86456 12.5555V6.77746C2.86456 5.98298 2.22004 5.33295 1.43228 5.33295C0.644527 5.33295 0 5.98298 0 6.77746V12.5555C0 13.35 0.644527 14 1.43228 14Z" fill="#FFDD2D"/>
</svg>

<svg width="16" height="14" fill="none" xmlns="http://www.w3.org/2000/svg"><path d="M8.68.32L4.712 4.323a1.45 1.45 0 00-.415 1.018v7.216c0 .794.644 1.444 1.432 1.444h6.445c.573 0 1.089-.347 1.318-.874l2.335-5.496c.601-1.43-.437-3.02-1.977-3.02H9.804l.68-3.307a1.095 1.095 0 00-.293-.99A1.06 1.06 0 008.68.321zM1.432 14c.788 0 1.433-.65 1.433-1.444V6.777c0-.794-.645-1.444-1.433-1.444C.645 5.333 0 5.983 0 6.777v5.779C0 13.35.645 14 1.432 14z" fill="#FFDD2D"/></svg>
